X: 36298
T: Seamus Ennis' Fancy
R: reel
M: 4/4
K: Dmajor
|:AFAF Adfd|dcde fdfa|~b3f a~f3|gefd efdB|
A3F Adfd|AFGB Adfa|bfaf faab|1 afef d3B:|2 afef d3e||
|:f~a3 f~a3|afde f~a3|dcde f~a2f|g2fg efdB|
A ~f3 A ~f3|~f2de faab|a2de faab|1 afef d3e:|2 afef d3B||

